blockchains/band/logo.svg

<svg fill="none" height="250" viewBox="0 0 250 250" width="250" xmlns="http://www.w3.org/2000/svg" xmlns:xlink="http://www.w3.org/1999/xlink"><clipPath id="a"><path d="m0 0h250v250h-250z"/></clipPath><g clip-path="url(#a)"><circle cx="125" cy="125" fill="#4520e7" r="125"/><path d="m178.863 94.5619c0-11.8593-5.371-22.3451-13.631-28.7772l22.268-24.1206-13.317.067-17.713 19.1624c-3.298-1.206-6.784-1.8425-10.427-1.8425h-60.9299v93.4l73.3669-79.3967c6.595 4.4892 11.024 12.4624 11.024 21.5076 0 13.9701-10.522 25.3601-23.43 25.3601h-1.947l-81.627 88.409h13.2538l16.0176-17.32h54.2716c18.09 0 32.789-15.947 32.789-35.511 0-12.931-6.407-24.221-15.955-30.419 9.548-6.298 15.986-17.621 15.986-30.5191zm-84.3592 33.4001v-58.7938h51.5392c.879 0 1.758.067 2.606.1676zm75.0002 27.437c0 13.97-10.522 25.361-23.43 25.361h-44.943l46.702-50.553c12.06 1.038 21.671 11.893 21.671 25.192z" fill="#fff"/></g></svg>

<svg width="250" height="250" viewBox="0 0 250 250" fill="none" xmlns="http://www.w3.org/2000/svg">
<g clip-path="url(#clip0_50_11845)">
<circle cx="125" cy="125" r="125" fill="#4520E7"/>
<path d="M178.863 94.5619C178.863 82.7026 173.492 72.2168 165.232 65.7847L187.5 41.6641L174.183 41.7311L156.47 60.8935C153.172 59.6875 149.686 59.051 146.043 59.051H85.1131V152.451L158.48 73.0543C165.075 77.5435 169.504 85.5167 169.504 94.5619C169.504 108.532 158.982 119.922 146.074 119.922H144.127L62.5 208.331H75.7538L91.7714 191.011H146.043C164.133 191.011 178.832 175.064 178.832 155.5C178.832 142.569 172.425 131.279 162.877 125.081C172.425 118.783 178.863 107.46 178.863 94.5619ZM94.5038 127.962V69.1682H146.043C146.922 69.1682 147.801 69.2352 148.649 69.3358L94.5038 127.962ZM169.504 155.399C169.504 169.369 158.982 180.76 146.074 180.76H101.131L147.833 130.207C159.893 131.245 169.504 142.1 169.504 155.399Z" fill="white"/>
</g>
<defs>
<clipPath id="clip0_50_11845">
<rect width="250" height="250" fill="white"/>
</clipPath>
</defs>
</svg>
